icons/book-24.svg

<svg xmlns="http://www.w3.org/2000/svg" width="24" height="24" viewBox="0 0 24 24"><path fill-rule="evenodd" d="M0 3.75A.75.75 0 01.75 3h7.497c1.566 0 2.945.8 3.751 2.014A4.496 4.496 0 0115.75 3h7.5a.75.75 0 01.75.75v15.063a.75.75 0 01-.755.75l-7.682-.052a3 3 0 00-2.142.878l-.89.891a.75.75 0 01-1.061 0l-.902-.901a3 3 0 00-2.121-.879H.75a.75.75 0 01-.75-.75v-15zm11.247 3.747a3 3 0 00-3-2.997H1.5V18h6.947a4.5 4.5 0 012.803.98l-.003-11.483zm1.503 11.485V7.5a3 3 0 013-3h6.75v13.558l-6.927-.047a4.5 4.5 0 00-2.823.971z"/></svg>

<svg xmlns="http://www.w3.org/2000/svg" width="24" height="24" viewBox="0 0 24 24">
  <defs/>
  <path d="M0,3.75 C0,3.336 0.336,3 0.75,3 L8.247,3 C9.813,3 11.192,3.8 11.998,5.014 C12.831,3.755 14.241,2.999 15.75,3 L23.25,3 C23.664,3 24,3.336 24,3.75 L24,18.813 C24,19.013 23.92,19.204 23.779,19.345 C23.637,19.486 23.445,19.564 23.245,19.563 L15.563,19.511 C14.76,19.505 13.989,19.822 13.421,20.389 L12.531,21.28 C12.238,21.573 11.763,21.573 11.47,21.28 L10.568,20.379 C10.006,19.816 9.243,19.5 8.447,19.5 L0.75,19.5 C0.336,19.5 0,19.164 0,18.75 Z M12.75,18.982 C13.553,18.347 14.549,18.004 15.573,18.011 L22.5,18.058 L22.5,4.5 L15.75,4.5 C14.093,4.5 12.75,5.843 12.75,7.5 Z M11.247,7.497 C11.245,5.841 9.903,4.5 8.247,4.5 L1.5,4.5 L1.5,18 L8.447,18 C9.465,18 10.453,18.346 11.25,18.98 Z"/>
</svg>
